X:1
T: Excuse Me
N:
C:
S:
A:
O:
R:
M:6/8
K:Em
I:speed 170
%W: A
% voice 1 (1 lines, 34 notes)
K:Em
M:6/8
L:1/16
E4 E2 E4 e2 d4 ^c2 B4 c2 d3 e d2 A2 B2 G2 F6 D6 |d3 e d2 ^c3 d c2 B3 ^c B2 A3 G F2 G3 F E2 F2 ^D4 E12 |
%W:
% voice 1 (1 lines, 34 notes)
E4 E2 E4 e2 d4 ^c2 B4 c2 d3 e d2 A2 B2 G2 F6 D6 |d3 e d2 ^c3 d c2 B3 ^c B2 A3 G F2 G3 F E2 F2 ^D4 E12 |
%W: B
% voice 1 (1 lines, 32 notes)
G4 A2 B2 G2 E2 G4 A2 B2 G2 E2 G4 A2 B4 e2 ^d6 B6 |G4 A2 B2 G2 E2 G4 A2 B2 G2 E2 G4 A2 B4 e2 ^d6 B6 |
%W: C
% voice 1 (1 lines, 37 notes)
F2 G2 A2 A3 B A2 d4 A2 A4 F2 G2 A2 B2 B3 c B2 e4 d2 ^c3 B A2 |d4 d2 d3 ^c B2 A4 G2 F2 G3 A G3 F E2 F2 ^D4 E12 |
%W:
% voice 1 (1 lines, 37 notes)
F2 G2 A2 A3 B A2 d4 A2 A4 F2 G2 A2 B2 B3 c B2 e4 d2 ^c3 B A2 |d4 d2 d3 ^c B2 A4 G2 F2 G3 A G3 F E2 F2 ^D4 E12 ||
